images/pig-scheme/golyashka.svg

<svg width="139" height="175" viewBox="0 0 139 175" fill="none" xmlns="http://www.w3.org/2000/svg">
<path d="M138.38 2.39558L122.49 37.0956L117.72 47.5156L101.37 83.2156L96.6 93.6356L80.26 129.326L75.48 139.756L71.81 147.776C70.22 150.106 56.91 169.066 41.46 173.776C39.26 174.446 37.02 174.826 34.76 174.826C31.99 174.826 29.2 174.266 26.43 172.966L24.44 172.436C24.28 170.186 24.14 168.136 23.99 166.246C23.85 164.366 23.72 162.626 23.59 160.996C23.22 156.496 22.88 152.736 22.5 148.686C22.34 146.956 22.12 145.176 21.86 143.376C21.63 141.766 21.36 140.146 21.06 138.526C20.06 133.046 18.76 127.566 17.54 122.696C17.14 121.116 16.76 119.606 16.4 118.186C14.97 112.576 13.87 108.276 13.87 106.526C13.87 104.076 15.82 101.636 17.56 97.6756C18.51 95.5456 19.39 92.9656 19.88 89.7056C19.92 89.4456 19.96 89.1856 19.99 88.9256L19.75 79.9756C19.66 78.1656 18.59 75.9056 16.91 73.3256C16.24 72.2756 15.45 71.1656 14.58 70.0056C13.7 68.8156 12.74 67.5856 11.72 66.3156C9.91 64.0756 7.92 61.7256 5.93 59.3056C5.08 58.2756 4.23 57.2356 3.4 56.1856C2.23 54.7456 1.09 53.2856 0 51.8156C5.14 48.5356 11.8 44.4956 19.46 40.1256C23.43 37.8656 27.67 35.5156 32.1 33.1356C43.72 26.9056 56.67 20.4856 69.61 14.9756C72.8 13.6156 75.99 12.3156 79.16 11.0756C88.97 7.26557 98.57 4.14558 107.38 2.20558C109.76 1.66558 112.09 1.22557 114.35 0.885571C121.67 -0.234429 128.26 -0.354429 133.7 0.885571C135.23 1.21557 136.66 1.66561 138 2.23561C138.13 2.28561 138.26 2.33558 138.38 2.39558Z" fill="#C21921"/>
<path fill-rule="evenodd" clip-rule="evenodd" d="M32.0999 33.1355L5.9299 59.3055C5.0799 58.2755 4.2299 57.2355 3.3999 56.1855L19.4599 40.1255C23.4299 37.8655 27.6699 35.5155 32.0999 33.1355Z" fill="#9E1B1E"/>
<path fill-rule="evenodd" clip-rule="evenodd" d="M79.1598 11.0754L16.9098 73.3254C16.2398 72.2754 15.4498 71.1654 14.5798 70.0054L69.6098 14.9755C72.7998 13.6155 75.9898 12.3154 79.1598 11.0754Z" fill="#9E1B1E"/>
<path fill-rule="evenodd" clip-rule="evenodd" d="M114.35 0.885498L17.5598 97.6755C18.5098 95.5455 19.3898 92.9655 19.8798 89.7055L107.38 2.20551C109.76 1.66551 112.09 1.2255 114.35 0.885498Z" fill="#9E1B1E"/>
<path fill-rule="evenodd" clip-rule="evenodd" d="M138 2.23553L17.5399 122.695C17.1399 121.115 16.7599 119.605 16.3999 118.185L133.7 0.885498C135.23 1.2155 136.66 1.66553 138 2.23553Z" fill="#9E1B1E"/>
<path fill-rule="evenodd" clip-rule="evenodd" d="M122.49 37.0955L117.72 47.5154L21.8598 143.375C21.6298 141.765 21.3598 140.145 21.0598 138.525L122.49 37.0955Z" fill="#9E1B1E"/>
<path fill-rule="evenodd" clip-rule="evenodd" d="M101.37 83.2156L96.5998 93.6356L23.9898 166.246C23.8498 164.366 23.7198 162.626 23.5898 160.996L101.37 83.2156Z" fill="#9E1B1E"/>
<path fill-rule="evenodd" clip-rule="evenodd" d="M80.26 129.325L75.48 139.755L41.46 173.775C39.26 174.445 37.02 174.825 34.76 174.825L80.26 129.325Z" fill="#9E1B1E"/>
</svg>

<svg width="139" height="175" fill="none" xmlns="http://www.w3.org/2000/svg"><path d="M138.38 2.396l-15.89 34.7-4.77 10.42-16.35 35.7-4.77 10.42-16.34 35.69-4.78 10.43-3.67 8.02c-1.59 2.33-14.9 21.29-30.35 26-2.2.67-4.44 1.05-6.7 1.05-2.77 0-5.56-.56-8.33-1.86l-1.99-.53c-.16-2.25-.3-4.3-.45-6.19-.14-1.88-.27-3.62-.4-5.25-.37-4.5-.71-8.26-1.09-12.31-.16-1.73-.38-3.51-.64-5.31-.23-1.61-.5-3.23-.8-4.85-1-5.48-2.3-10.96-3.52-15.83-.4-1.58-.78-3.09-1.14-4.51-1.43-5.61-2.53-9.91-2.53-11.66 0-2.45 1.95-4.89 3.69-8.85.95-2.13 1.83-4.71 2.32-7.97.04-.26.08-.52.11-.78l-.24-8.95c-.09-1.81-1.16-4.07-2.84-6.65-.67-1.05-1.46-2.16-2.33-3.32-.88-1.19-1.84-2.42-2.86-3.69-1.81-2.24-3.8-4.59-5.79-7.01-.85-1.03-1.7-2.07-2.53-3.12-1.17-1.44-2.31-2.9-3.4-4.37 5.14-3.28 11.8-7.32 19.46-11.69 3.97-2.26 8.21-4.61 12.64-6.99 11.62-6.23 24.57-12.65 37.51-18.16 3.19-1.36 6.38-2.66 9.55-3.9 9.81-3.81 19.41-6.93 28.22-8.87 2.38-.54 4.71-.98 6.97-1.32 7.32-1.12 13.91-1.24 19.35 0 1.53.33 2.96.78 4.3 1.35.13.05.26.1.38.16z" fill="#C21921"/><path fill-rule="evenodd" clip-rule="evenodd" d="M32.1 33.136L5.93 59.306c-.85-1.03-1.7-2.07-2.53-3.12l16.06-16.06c3.97-2.26 8.21-4.61 12.64-6.99zm47.06-22.061l-62.25 62.25c-.67-1.05-1.46-2.16-2.33-3.32l55.03-55.03c3.19-1.36 6.38-2.66 9.55-3.9zM114.35.885l-96.79 96.79c.95-2.13 1.83-4.71 2.32-7.97l87.5-87.5c2.38-.54 4.71-.98 6.97-1.32zM138 2.236L17.54 122.695c-.4-1.58-.78-3.09-1.14-4.51L133.7.885c1.53.33 2.96.78 4.3 1.35zm-15.51 34.86l-4.77 10.42-95.86 95.859c-.23-1.61-.5-3.23-.8-4.85l101.43-101.43zm-21.12 46.12l-4.77 10.42-72.61 72.61c-.14-1.88-.27-3.62-.4-5.25l77.78-77.78zm-21.11 46.109l-4.78 10.43-34.02 34.02c-2.2.67-4.44 1.05-6.7 1.05l45.5-45.5z" fill="#9E1B1E"/></svg>
